X:1
T:Devil in the Kitchen, The [1]
T:Prince of Wales Jig, The
M:C
L:1/8
R:Reel
S:Skinner - Harp and Claymore
Z:AK/Fiddler's Companion
K:Amix
f |: e>A A/A/A A/A/A c>A | e>A A/A/A ({a/g/f/}g2) e<a |
e>A A/A/A A/A/A c>A | B>G d/c/B ({a/g/f/}g2) f<g :|
|| a>A A/A?A e>A c>A | a>A A/A/A ({a/g/f/}g2) f<g | a>A .A/.A/.A .A/.A/.A c>A |
B>G d/c/B {a/g/f/}g2 f<g | a>A A/A/A e/A/A c>A | a>A A/A/A ({a/g/f/}g2) f<g |
a/g/f g>e e>f e>A | B>G d/c/B ({a/g/f/}g2) f<g ||
|: ({F}E>)A, A,/A,/A, A,/A,/A, C>A, | E>A, A,/A,/A, ({A/G/F/}G2) E<A |
E>A, A,/A,/A, A,/A,/A, C>A, | B>G, D/C/B, ({A/G/F/}G2) F<G :|
|| a>A A/A/A e>A c>A | a>A A/A/A {a/g/f/}g2 f<g | a>A .A/.A/.A .A/.A/.A c>A |
B>G d/c/B ({a/g/f/}g2) f<g | a>A A/A/A e/A/A c>A | a>A A/A/A ({a/g/f/}g2) f>g |
a/g/f g>e f>d e>A | B>G d/c/B ({a/g/f/}g2) f>g ||

